src/assets/icons/calendar.svg

<svg width="24" height="22" viewBox="0 0 24 22" fill="none" xmlns="http://www.w3.org/2000/svg">
<path fill-rule="evenodd" clip-rule="evenodd" d="M12.1252 5.97553C15.5213 5.97553 18.9173 5.97503 22.3133 5.97767C22.424 5.97775 22.4647 5.95789 22.4627 5.84343C22.4552 5.40885 22.4627 4.97407 22.4591 4.53939C22.4525 3.72269 21.7813 3.0864 20.9218 3.0826C20.2566 3.07967 19.5913 3.08363 18.9261 3.07991C18.8349 3.07938 18.8096 3.10215 18.8111 3.18859C18.8167 3.50905 18.8143 3.82963 18.8131 4.15017C18.8115 4.5673 18.4745 4.89277 18.0448 4.89385C17.6176 4.89496 17.2785 4.56786 17.2762 4.14985C17.2744 3.84251 17.2695 3.53495 17.2789 3.22784C17.2826 3.10869 17.249 3.07885 17.1218 3.07901C14.0608 3.0827 10.9997 3.08189 7.93862 3.08189C7.5711 3.08189 7.20355 3.0851 6.83611 3.0797C6.74271 3.07833 6.72169 3.10513 6.72298 3.18904C6.72798 3.5139 6.72784 3.83889 6.7241 4.16378C6.71937 4.57179 6.37468 4.89617 5.95442 4.8938C5.52849 4.8914 5.19 4.57023 5.18743 4.16283C5.18539 3.8423 5.18218 3.52166 5.18989 3.20128C5.19232 3.10091 5.16264 3.07872 5.05958 3.07946C4.40831 3.08418 3.75699 3.08075 3.1057 3.0822C2.21155 3.08416 1.54209 3.71889 1.53994 4.56577C1.53888 4.98291 1.54793 5.40026 1.53564 5.81707C1.53144 5.95863 1.58055 5.9783 1.71388 5.97817C5.14247 5.97482 8.57105 5.97553 11.9996 5.97553H12.1252ZM1.68532 7.42505C1.57468 7.42494 1.5367 7.4433 1.53684 7.55776C1.54044 11.0526 1.53997 15.5217 1.53972 19.0165C1.53972 19.1354 1.5479 19.2536 1.57568 19.3694C1.74319 20.0667 2.34947 20.5219 3.11232 20.522C9.02451 20.5223 14.9367 20.5222 20.8489 20.5221C21.7995 20.5221 22.4598 19.8986 22.4599 19.0001C22.4601 15.5184 22.459 11.0625 22.4631 7.58085C22.4633 7.45325 22.4306 7.42415 22.2966 7.42428C18.8684 7.42816 15.4401 7.42734 12.0119 7.42734C8.56971 7.42734 5.12751 7.42787 1.68532 7.42505ZM3.12213 21.9731C1.6173 21.9728 0.393659 21.0479 0.0661259 19.6618C0.0205731 19.4691 0.000507558 19.2722 0.000507558 19.0742C0.000311933 14.5515 -0.00077798 9.05458 0.0010106 4.5319C0.00159747 3.06601 1.14682 1.84417 2.68706 1.6534C2.81229 1.63788 2.93693 1.63174 3.06249 1.63169C3.7324 1.63142 4.4023 1.6301 5.07221 1.6334C5.16086 1.63382 5.19157 1.61512 5.18939 1.5259C5.18282 1.25818 5.18528 0.990247 5.18749 0.722392C5.19081 0.321586 5.52732 0.00284477 5.94679 0.000233223C6.37309 -0.0024047 6.71943 0.316732 6.72418 0.720757C6.7274 0.992964 6.72765 1.26528 6.72332 1.53743C6.72211 1.61156 6.74411 1.64292 6.82376 1.63203C6.84653 1.62892 6.8702 1.63155 6.89348 1.63155C10.2988 1.63155 13.7042 1.63045 17.1095 1.63533C17.2566 1.63554 17.2844 1.59597 17.2789 1.46919C17.2681 1.2237 17.2745 0.977506 17.2761 0.731625C17.2788 0.324065 17.618 0.000839946 18.0416 0.000101327C18.4695 -0.000637293 18.8095 0.317708 18.8128 0.724846C18.8148 0.979485 18.8191 1.23436 18.8104 1.48879C18.8067 1.59908 18.8289 1.63659 18.9585 1.63506C19.6097 1.62744 20.2611 1.63121 20.9124 1.63161C22.5162 1.63264 23.8273 2.75497 23.9802 4.25901C23.9921 4.37674 23.9991 4.49542 23.9991 4.61368C24 9.10562 24.0008 14.5718 23.9986 19.0638C23.9983 19.7147 23.7948 20.3076 23.3702 20.8235C22.7496 21.5775 21.9281 21.9691 20.9165 21.9711C17.9438 21.9769 14.9711 21.9732 11.9984 21.9732C9.03963 21.9732 6.08088 21.9736 3.12213 21.9731Z" fill="#F65261"/>
<path fill-rule="evenodd" clip-rule="evenodd" d="M18.0072 12.997C17.3833 12.997 16.7595 12.9939 16.1357 13C16.0266 13.001 15.9996 12.9722 16 12.8575C16.0043 11.6192 16.0046 10.3808 16.0001 9.14255C15.9997 9.02394 16.033 9.00052 16.1384 9.00083C17.3813 9.0045 18.6242 9.00487 19.8671 9C19.98 8.99958 19.9997 9.03518 19.9994 9.14549C19.9956 10.3838 19.9953 11.6221 20 12.8604C20.0004 12.9773 19.97 13.0007 19.8643 12.9998C19.2453 12.9941 18.6263 12.997 18.0072 12.997Z" fill="#F65261"/>
<path fill-rule="evenodd" clip-rule="evenodd" d="M5.99528 12.9981C5.37098 12.998 4.74669 12.9963 4.12242 13C4.03314 13.0005 3.99983 12.9838 4.00018 12.8783C4.00399 11.6293 4.0041 10.3802 4 9.13113C3.99965 9.01899 4.0341 8.99982 4.13094 9.00009C5.37464 9.00343 6.61841 9.00371 7.86211 9C7.9672 8.9997 8.00043 9.02233 8 9.14111C7.99517 10.3851 7.99482 11.6291 7.99991 12.873C8.00037 12.9918 7.95999 13.0005 7.86812 13C7.24386 12.9963 6.61957 12.9981 5.99528 12.9981Z" fill="#F65261"/>
<path fill-rule="evenodd" clip-rule="evenodd" d="M12.0083 9.00297C12.623 9.003 13.2377 9.00539 13.8524 9.00076C13.9593 8.99997 14.0005 9.01892 14 9.14762C13.9947 10.3852 13.9952 11.6228 13.9999 12.8604C14.0004 12.9778 13.969 12.9999 13.8637 12.9995C12.6198 12.9954 11.3758 12.995 10.1319 13C10.0187 13.0005 9.99995 12.9653 10.0003 12.856C10.004 11.6184 10.0043 10.3808 10 9.14324C9.99963 9.0289 10.0255 8.99896 10.1352 9.00003C10.7595 9.006 11.3839 9.00294 12.0083 9.00297Z" fill="#F65261"/>
<path fill-rule="evenodd" clip-rule="evenodd" d="M17.9998 15.0025C18.6236 15.0027 19.2475 15.0052 19.8713 15.0001C19.9703 14.9993 20.0003 15.0219 20 15.1314C19.9961 16.3759 19.9963 17.6203 20 18.8648C20.0003 18.9693 19.9796 19 19.8753 18.9997C18.6276 18.9954 17.3799 18.9951 16.1322 19C16.018 19.0005 15.9997 18.9633 16 18.8537C16.0038 17.6144 16.0039 16.375 16.0002 15.1357C15.9999 15.0281 16.0269 14.9992 16.1282 15C16.752 15.0048 17.3759 15.0024 17.9998 15.0025Z" fill="#F65261"/>
<path fill-rule="evenodd" clip-rule="evenodd" d="M6.00889 15.002C6.62326 15.002 7.23765 15.0041 7.85198 15C7.9554 14.9993 8.00063 15.0122 7.99999 15.1443C7.99424 16.3837 7.9956 17.6232 7.99903 18.8627C7.9993 18.9647 7.98115 19.0004 7.87518 19C6.6223 18.9957 5.36938 18.9957 4.11647 18.9999C4.01591 19.0003 4.00023 18.9657 4.00044 18.8717C4.00314 17.622 4.00375 16.3723 4 15.1227C3.99968 15.0172 4.03265 14.9996 4.12228 15.0001C4.75112 15.0038 5.38002 15.0021 6.00889 15.002Z" fill="#F65261"/>
<path fill-rule="evenodd" clip-rule="evenodd" d="M11.996 15.0027C12.6153 15.0026 13.2347 15.0047 13.854 15.0004C13.959 14.9997 14.0006 15.0178 14 15.1458C13.9945 16.3796 13.9941 17.6135 14 18.8473C14.0006 18.9817 13.9606 19.0004 13.8471 19C12.6132 18.9956 11.3793 18.9959 10.1455 18.9993C10.0395 18.9996 10.0001 18.9823 10.0006 18.8545C10.0061 17.6207 10.0061 16.3868 10 15.153C9.99937 15.0191 10.0381 14.9989 10.1524 15C10.7669 15.0061 11.3814 15.0029 11.996 15.0027Z" fill="#F65261"/>
</svg>

<svg width="24" height="22" fill="none" xmlns="http://www.w3.org/2000/svg"><path fill-rule="evenodd" clip-rule="evenodd" d="M12.125 5.976c3.396 0 6.792-.001 10.188.002.111 0 .152-.02.15-.135-.008-.434 0-.869-.004-1.304-.006-.816-.678-1.453-1.537-1.456-.665-.003-1.33 0-1.996-.003-.091 0-.116.022-.115.109.006.32.003.64.002.961a.75.75 0 0 1-.768.744.751.751 0 0 1-.769-.744c-.002-.307-.006-.615.003-.922.004-.12-.03-.15-.157-.149-3.061.004-6.122.003-9.183.003-.368 0-.735.003-1.103-.002-.093-.002-.114.025-.113.109.005.325.005.65.001.975a.752.752 0 0 1-.77.73c-.426-.003-.764-.324-.767-.731-.002-.32-.005-.641.003-.962.002-.1-.027-.122-.13-.122-.652.005-1.303.002-1.954.003-.894.002-1.564.637-1.566 1.484-.001.417.008.834-.004 1.251-.005.142.045.161.178.161C5.142 5.975 8.57 5.976 12 5.976h.125ZM1.685 7.425c-.11 0-.148.018-.148.133.003 3.495.003 7.964.003 11.459 0 .118.008.237.036.352.167.698.773 1.153 1.536 1.153H20.85c.95 0 1.61-.623 1.61-1.522.001-3.482 0-7.938.004-11.42 0-.127-.032-.156-.166-.156-3.429.004-6.857.003-10.285.003-3.442 0-6.884 0-10.327-.002Zm1.437 14.548c-1.505 0-2.728-.925-3.056-2.311a2.55 2.55 0 0 1-.065-.588c0-4.523-.002-10.02 0-14.542 0-1.466 1.146-2.688 2.686-2.879.125-.015.25-.021.375-.021.67 0 1.34-.002 2.01.001.089 0 .12-.018.117-.107-.006-.268-.004-.536-.002-.804.004-.4.34-.72.76-.722.426-.002.772.317.777.72.003.273.004.545 0 .817-.002.075.02.106.1.095.023-.003.046 0 .07 0 3.405 0 6.81-.002 10.216.003.147 0 .174-.039.169-.166-.01-.245-.005-.491-.003-.737.003-.408.342-.731.766-.732.427 0 .767.318.77.725.003.254.007.51-.002.764-.003.11.019.148.149.146.65-.008 1.302-.004 1.953-.003 1.604 0 2.915 1.123 3.068 2.627.012.118.02.236.02.355l-.001 14.45c0 .65-.204 1.244-.629 1.76-.62.753-1.442 1.145-2.454 1.147-2.972.006-5.945.002-8.918.002H3.122Z" fill="#F65261"/><path fill-rule="evenodd" clip-rule="evenodd" d="M18.007 12.997c-.624 0-1.248-.003-1.871.003-.11.001-.136-.028-.136-.143.004-1.238.005-2.476 0-3.714 0-.12.033-.142.138-.142 1.243.004 2.486.004 3.73-.001.112 0 .132.035.131.145A541.2 541.2 0 0 0 20 12.86c0 .117-.03.14-.136.14-.619-.006-1.238-.003-1.857-.003Zm-12.012.001c-.624 0-1.248-.002-1.873.002-.089 0-.122-.016-.122-.122.004-1.249.004-2.498 0-3.747 0-.112.034-.131.13-.13 1.245.002 2.488.003 3.732-.001.105 0 .138.022.138.141a467.98 467.98 0 0 0 0 3.732c0 .119-.04.128-.132.127-.624-.004-1.248-.002-1.873-.002Zm6.013-3.995c.615 0 1.23.002 1.844-.002.107-.001.149.018.148.147a459.493 459.493 0 0 0 0 3.712c0 .118-.031.14-.136.14a510.124 510.124 0 0 0-3.732 0c-.113 0-.132-.035-.132-.144a574.36 574.36 0 0 0 0-3.713c0-.114.025-.144.135-.143.624.006 1.249.003 1.873.003ZM18 15.002c.624 0 1.247.003 1.871-.002.1 0 .13.022.129.131a611.33 611.33 0 0 0 0 3.734c0 .104-.02.135-.125.135a507.64 507.64 0 0 0-3.743 0c-.114 0-.132-.037-.132-.146.004-1.24.004-2.479 0-3.718 0-.108.027-.137.128-.136.624.005 1.248.002 1.872.002Zm-11.991 0c.614 0 1.229.002 1.843-.002.103 0 .149.012.148.144-.006 1.24-.004 2.48-.001 3.719 0 .102-.018.137-.124.137a554.037 554.037 0 0 0-3.759 0c-.1 0-.116-.034-.116-.128.003-1.25.004-2.5 0-3.75 0-.105.033-.122.122-.122.63.004 1.258.002 1.887.002Zm5.987.001c.62 0 1.239.002 1.858-.003.105 0 .147.018.146.146a400.62 400.62 0 0 0 0 3.701c0 .135-.04.153-.153.153a585.552 585.552 0 0 0-3.701 0c-.107 0-.146-.018-.145-.145A415.3 415.3 0 0 0 10 15.153c0-.134.038-.154.152-.153.615.006 1.23.003 1.844.003Z" fill="#F65261"/></svg>
